X:1
T: Johnny Groat's House
T: 8 x 32R3C
P: John o' Groat's House
C: Hunter Collection, arr. T. Traub 8-4-03
R: reel
M: 4/4
K: C
L: 1/8
c|:"C"Gccd e2 dc|"G"BGdc "G7"BcdB|"C"Gccd e2 dc|"F"GcBc "G"dB "C"c2 :|
"C"gfeg "F"fagf|"C"ecgc "G"Bcdf|"C"gfeg "F"fagf|"Dm"gefd "G"BG "C"c2|
"C"gfeg "F"fagf|"C"ecgc "G"Bcdf|"C"ecBc GcEc|"F"GEFD "G"B,G, "C"C2 |]
